X:1
T:Amor, ich bin gefangen
T:Antonio Brunelli (1577-1630)
T:Source : Tricinia---Johann-Jacob Gastoldi und anderer Autorn---Nürnberg---P.Kauffmann---1607. Editor : André Vierendeels ( 14/03/17).
T:Notes : Original clefs : C1, C1, F4 Text Middle German by Valentin Hauszmann Sub-heading : from "Affettuoso Invaghito" 
T:Amor, ich bin gefangen
T:©
T:©
T:©
T:©
C:Antonio Brunelli
C:(1577-1630)
Z:©
%%score [ 1 2 3 ]
L:1/8
Q:1/4=101
M:4/4
K:C
V:1 treble nm="Soprano 1" snm="S 1"
V:2 treble nm="Soprano 2" snm="S 2"
V:3 bass nm="Bass" snm="B"
V:1
"^1)" e6 d2 | c2 BB d4 | B6 e2- | e2 cc d3 B | BB c3 AAA | B3 G GG A2- | A2 d2 A4 |[M:2/4] G4 :: %8
w: A- mor,|ich bin ge- fan-|gen, durch|_ dei- ne list, die|du an mir, durch dei- ne|list, die du an mir|_ be- gan-|gen,|
w: Du hast|mich recht be- tro-|gen, weil|_ du auff mich ge-|wen- det hast, weil du auff|mich ge- wen- det hast|_ dein Bo-|gen,|
[M:4/4] z2 B2 B4- | B2 B2 A4 | ^F4 F4- | F4 ^F2 G2- | GG A2 B3 B | c2 d3 d c2 | B4 c2 e2- | %15
w: wie ich|_ es hab|be- fun-|* den, mit|_ tau- send Ket- ten|hast du es ge-|bun- den, mit|
w: und auff|_ mein Hertz|ge- stos-|* sen, mit|_ tau- send Pfei- len|hast du es durch-|schos- sen, mit|
 ee d2 c3 B | B2 A3 A d2 | A4 !fermata!G4 |] %18
w: _ tau- send Ket- ten|hast du es ge-|bun- den.|
w: _ tau- send Pfei- len|hast du es durch-|schos- sen.|
V:2
"^2)""^1)" G6 B2 | A2 ^GG A4- | A2 ^G^F G4 | c4 AA B2- | BGGG A3 ^F | ^FF G3 EEE | ^F2 G4 F2 | %7
w: A- mor,|ich bin ge- fan-|* * * gen,|durch dei- ne list,|_ die du an mir, durch|dei- ne list, die du an|mir be- gan-|
w: Ich wolt|beym war- men si-|* * * tzen,|ge- dach- te nicht,|_ ge- dach- te nicht dasz|dein feur, dasz fein feur so|solt hit- *|
[M:2/4] G4 ::[M:4/4] z2 G2 ^G4- | G2 ^G2 E4 | D4 ^D4- | D4 ^D4 | E3 E ^F2 G2- | GG A2 B2 G2- | %14
w: gen,|wie ich|_ es hab|be- fun-|* den,|mit tau- send Ket-|* ten hast du es-|
w: zen.|nun steht|_ in g'fahr|mein le-|* ben,|mit tau- send flam-|* men bin ich jetzt|
 GD D2 E4 | B3 B A2 G2- | GG E2 ^F2 GG | G2 ^F2 !fermata!G4 |] %18
w: * ge- bun- den,|mit tau- send Ket-|* ten hast du es ge-|bun- * den.|
w: _ umb- ge- ben,|mit tau- send flam-|* men bin ich jetzt umb-|ge- * ben.|
V:3
"^3)""^1)""^4)" C,6 G,2 | A,2 E,E, F,4 | E,8 | A,4 ^F,F, G,2- | G,E,E,E, F,3 D, | D,D, E,3 C,C,C, | %6
w: A- mor,|ich bin ge- fan-|gen,|durch dei- ne list,|_ die du an mir, durch|dei- ne list, die du an|
w: Da- her|ur- sach ist kom-|men,|dasz du hie- mit|_ mir tau- send freud, mir|tau- send freud, mit tau- sens|
 D,2 B,,2 D,4 |[M:2/4] G,,4 ::[M:4/4] G,4 E,4- | E,2 E,2 ^C,4 | D,4 B,,4- | B,,4 B,,4 | %12
w: mir be- gan-|gen|wie ich|_ es hab|be- fun-|* den,|
w: freud ge- nom-|men,|Wie dann|_ ist klar|am ta-|* ge,|
 C,3 C, D,2 E,2- | E,E, F,2 G,2 E,E, | G,4 C,4 | G,,3 G,, A,,2 B,,2- | B,,B,, C,2 D,2 B,,B,, | %17
w: mit tau- send Ket-|* ten hast du es ge-|bun- den,|mir tau- send Ket-|* ten hast du es ge-|
w: tau- send mal mehr|_ ich mein schmer- zen be-|kla- ge,|tau- send mal mehr|_ ich mein schmer- zen be-|
 D,4 !fermata!G,,4 |] %18
w: bun- den.|
w: kla- ge.|

